X: 173
T: One of Them Will Be Killed
C: Teton Sioux band 1911-1914
N: Derived from sioux168.krn
O: South Dakota, U.S.A.
N: Teton Sioux Music by Frances Densmore, 1918
Z: transcribed to **kern format by Craig Sapp
L: 1/8
M: 2/4
Q: 1/4=58
K: C clef=bass
%%linebreak <none>
E E [I:setbarnb 1]| 
E3D | 
C2A, A, ||  
[M:3/4]A,6 | 
C2D CA,2 ||  
[M:2/4]G,2A, G, | 
E,3D, | 
C,2D, C, ||  
[M:3/4]A,,6 | 
E,4D,2 ||  
[M:2/4]C,2D, C, | 
A,,2A,, A,, | 
A,,4 ||  
[M:3/4]A,,4-A,, ]|:  
C [I:setbarnb 14]||  
[M:2/4]A,> A,A,2 ||  
[M:3/4]C2C> EA,2 ||  
[M:2/4]G,2(A, E,) | 
E,> E,E,2 | 
C,2(D, A,,) | 
A,,> A,,A,,2 | 
A,,2E,2 | 
E,> E,D,2 | 
C,> C, (3D, D, D, ||  
[M:3/4]A,,> A,,A,,4 | 
A,,4A,, :|]  



